optimized/24/outline/video.svg

<svg viewBox="0 0 24 24" xmlns="http://www.w3.org/2000/svg" fill="currentColor" data-slot="icon">
  <g clip-path="url(#clip0_2117_12174)">
    <path d="M15.75 10.3987V7.46429C15.75 6.04445 14.5171 5 13.1333 5H3.61667C2.23293 5 1 6.04445 1 7.46429V16.5357C1 17.9555 2.23292 19 3.61667 19H13.1333C14.5171 19 15.75 17.9555 15.75 16.5357V13.6013L20.7699 17.5762C20.9934 17.7625 21.3046 17.8026 21.5681 17.6792C21.8317 17.5558 22 17.291 22 17V7C22 6.70899 21.8317 6.44424 21.5681 6.32081C21.3046 6.19737 20.9934 6.23753 20.7699 6.42383L15.75 10.3987ZM2.5 7.46429C2.5 6.99057 2.93855 6.5 3.61667 6.5H13.1333C13.8115 6.5 14.25 6.99057 14.25 7.46429V16.5357C14.25 17.0094 13.8115 17.5 13.1333 17.5H3.61667C2.93855 17.5 2.5 17.0094 2.5 16.5357V7.46429ZM20.5 15.3987L16.1715 12L20.5 8.60128V15.3987Z"/>
  </g>
  <defs>
    <clipPath id="clip0_2117_12174">
      <rect width="24" height="24"/>
    </clipPath>
  </defs>
</svg>

<svg xmlns="http://www.w3.org/2000/svg" viewBox="0 0 24 24" fill="currentColor" data-slot="icon">
  <g clip-path="url(#a)">
    <path d="M15.75 10.399V7.464C15.75 6.044 14.517 5 13.133 5H3.617C2.233 5 1 6.044 1 7.464v9.072C1 17.956 2.233 19 3.617 19h9.516c1.384 0 2.617-1.044 2.617-2.464V13.6l5.02 3.975A.75.75 0 0 0 22 17V7a.75.75 0 0 0-1.23-.576l-5.02 3.975ZM2.5 7.464c0-.473.439-.964 1.117-.964h9.516c.679 0 1.117.49 1.117.964v9.072c0 .473-.438.964-1.117.964H3.617c-.678 0-1.117-.49-1.117-.964V7.464Zm18 7.935L16.172 12 20.5 8.601V15.4Z"/>
  </g>
  <defs>
    <clipPath id="a">
      <rect width="24" height="24"/>
    </clipPath>
  </defs>
</svg>
